X:1
T:Title
%%score { ( 1 3 ) | ( 2 4 ) }
L:1/8
M:6/8
K:G
V:1 treble nm="Grand Piano"
V:3 treble 
V:2 bass 
V:4 bass 
V:1
 z3 z2[Q:1/4=90] D | G2 G GFG | [EA]2 [EA] [EA]EE | F2 F FED |[M:7/8] [DG]2 [DA] [DB]3 D | %5
[M:3/4] G2 GG FG | [EA]2 [EA][EA] EE | F2 FF ED |[M:5/8] [B,G]2 [CG] [B,G]2 |[M:1/8] [B,D] | %10
[M:3/4] [DG]3 [DB]2 [Dd] | [Dd]4 z2 | DF [FA][Fc] [FB][Fc] | e3 d2 D | G3 [DB]2 [Dd] | %15
 [Dd]3 [CDF]2 [B,DG] | [^CEA][CEB] [CEA][EG] [DF]E |[M:5/8] A-A- A3 |[M:1/8] [B,D] | %19
[M:3/4] [DG]3 [DB]2 [Dd] | [Dd]4 z2 | DF [FA][Fc] [FB][Fc] | e3 d2 D | G3 [DB]2 [Dd] | %24
 [Ed]3 [Ec]2 [^DG] | B2 c B2 A |[M:5/8] G-G- G3 |] %27
V:2
 z3 z2 [G,B,] | [G,B,D]2 [G,B,D] [G,B,D][A,CD][G,B,D] | [C,C]2 [C,C] [C,C][C,G,C][C,G,C] | %3
 [D,C]2 [D,A,C] [D,A,C][D,G,C][D,F,C] |[M:7/8] [B,,G,]2 [A,,F,] [G,,G,]3 [G,B,] | %5
[M:3/4] [G,B,D]2 [G,B,D][G,B,D] [A,CD][G,B,D] | [C,C]2 [C,C][C,C] [C,G,C][C,G,C] | %7
 [D,C]2 [D,A,C][D,A,C] [D,G,C][D,F,C] |[M:5/8] [G,,G,]2 [G,,E,] [G,,D,]2 |[M:1/8] [G,,G,] | %10
[M:3/4] [B,,G,]3 [G,,G,]2 [B,,G,] | .F,2 z [D,CD]2 [D,CD] | [D,C][D,CD] [D,C][D,A,] [D,^G,][D,A,] | %13
 [G,B,G]3 [G,B,G]2[K:bass] [G,B,] | [G,B,]3 [G,,G,]2 [B,,G,] | F,A, B, D,2 D, | %16
 A,,A,, A,,[A,,A,] [A,,A,][G,A,^C] |[M:5/8] [F,A,D]2 [E,G,] [D,F,]2 |[M:1/8] [G,,G,] | %19
[M:3/4] [B,,G,]3 [G,,G,]2 [B,,G,] | .F,2 z [D,CD]2 [D,CD] | [D,C][D,CD] [D,C][D,A,] [D,^G,][D,A,] | %22
 [G,B,G]3 [G,B,G]2[K:bass] [G,B,] | [G,B,]3 [G,,G,]2 [B,,G,] | [C,G,]3 [C,G,]2 [C,C] | %25
 [D,G,D]2 [D,F,D] [D,G,D]2 [D,F,C] |[M:5/8] z2 E, D,2 |] %27
V:3
 x6 | x6 | x6 | x6 |[M:7/8] x7 |[M:3/4] x6 | x6 | x6 |[M:5/8] x5 |[M:1/8] x |[M:3/4] x6 | %11
 z A, B, F2 E | x6 | x6 | x6 | x6 | x6 |[M:5/8] z2 ^C =C2 |[M:1/8] x |[M:3/4] x6 | z A, B, F2 E | %21
 x6 | x6 | x6 | x6 | x6 |[M:5/8] [G,B,]2 C B,2 |] %27
V:4
 x6 | x6 | x6 | x6 |[M:7/8] x7 |[M:3/4] x6 | x6 | x6 |[M:5/8] x5 |[M:1/8] x |[M:3/4] x6 | A,,4 z2 | %12
 x6 | x5[K:bass] x | x6 | A,,4 z2 | x6 |[M:5/8] x5 |[M:1/8] x |[M:3/4] x6 | A,,4 z2 | x6 | %22
 x5[K:bass] x | x6 | x6 | x6 |[M:5/8] G,,-G,,- G,,3 |] %27

